src/images_karasa_jaga_svg/cmd/32/flowchartshapes.flowchart-off-page-connector.svg

<svg height="32" viewBox="0 0 32 32" width="32" xmlns="http://www.w3.org/2000/svg" xmlns:xlink="http://www.w3.org/1999/xlink"><linearGradient id="a" gradientTransform="matrix(.40973888 0 0 .24845378 46.138619 21.258463)" gradientUnits="userSpaceOnUse" x1="33.829792" x2="33.829792" y1="429.62332" y2="-214.35963"><stop offset="0" stop-color="#fff"/><stop offset=".42597079" stop-color="#fff"/><stop offset=".5892781" stop-color="#f1f1f1"/><stop offset=".80219781" stop-color="#eaeaea"/><stop offset="1" stop-color="#dfdfdf"/></linearGradient><linearGradient id="b" gradientTransform="matrix(.40973888 0 0 .24845378 46.138619 21.258463)" gradientUnits="userSpaceOnUse" x1="33.829792" x2="33.829792" y1="429.62332" y2="-214.35963"><stop offset="0" stop-color="#7c9fcf"/><stop offset=".5" stop-color="#7c9ece"/><stop offset="1" stop-color="#7b9dcf"/></linearGradient><g fill-rule="evenodd" transform="scale(.25)"><path d="m12 3.9902344a4.0111256 4.0111256 0 0 0 -4.0097656 4.0097656v100a4.0111256 4.0111256 0 0 0 2.9238276 3.86133l52 14.61328a4.0111256 4.0111256 0 0 0 2.171876 0l52.000002-14.61328a4.0111256 4.0111256 0 0 0 2.92383-3.86133v-100a4.0111256 4.0111256 0 0 0 -4.00977-4.0097656z" fill="url(#b)"/><path d="m12 8v100l52 14.61239 52-14.61239v-100z" fill="url(#a)"/></g></svg>

<?xml version="1.0" encoding="UTF-8" standalone="no"?>
<!-- Created with Inkscape (http://www.inkscape.org/) -->

<svg
   xmlns:dc="http://purl.org/dc/elements/1.1/"
   xmlns:cc="http://creativecommons.org/ns#"
   xmlns:rdf="http://www.w3.org/1999/02/22-rdf-syntax-ns#"
   xmlns:svg="http://www.w3.org/2000/svg"
   xmlns="http://www.w3.org/2000/svg"
   xmlns:xlink="http://www.w3.org/1999/xlink"
   xmlns:sodipodi="http://sodipodi.sourceforge.net/DTD/sodipodi-0.dtd"
   xmlns:inkscape="http://www.inkscape.org/namespaces/inkscape"
   version="1.1"
   id="svg2"
   width="128"
   height="128"
   viewBox="0 0 128 128"
   sodipodi:docname="flowchartshapes.flowchart-off-page-connector.svg"
   inkscape:export-filename="/home/rizmut/Dokumen/Rizmut/Github/libreoffice-style-karasa-jaga/build/images_karasa_jaga/cmd/32/flowchartshapes.flowchart-off-page-connector.png"
   inkscape:export-xdpi="24"
   inkscape:export-ydpi="24"
   inkscape:version="0.92.3 (unknown)">
  <metadata
     id="metadata8">
    <rdf:RDF>
      <cc:Work
         rdf:about="">
        <dc:format>image/svg+xml</dc:format>
        <dc:type
           rdf:resource="http://purl.org/dc/dcmitype/StillImage" />
        <dc:title></dc:title>
      </cc:Work>
    </rdf:RDF>
  </metadata>
  <defs
     id="defs6">
    <inkscape:perspective
       id="perspective27"
       inkscape:persp3d-origin="64 : 42.666667 : 1"
       inkscape:vp_z="128 : 64 : 1"
       inkscape:vp_y="0 : 1000 : 0"
       inkscape:vp_x="0 : 64 : 1"
       sodipodi:type="inkscape:persp3d" />
    <linearGradient
       id="linearGradient3369">
      <stop
         id="stop3372"
         offset="0"
         style="stop-color:#ffffff;stop-opacity:1;" />
      <stop
         style="stop-color:#ffffff;stop-opacity:1;"
         offset="0.42597079"
         id="stop3374" />
      <stop
         style="stop-color:#f1f1f1;stop-opacity:1;"
         offset="0.5892781"
         id="stop3376" />
      <stop
         id="stop3378"
         offset="0.80219781"
         style="stop-color:#eaeaea;stop-opacity:1;" />
      <stop
         id="stop3384"
         offset="1"
         style="stop-color:#dfdfdf;stop-opacity:1;" />
    </linearGradient>
    <linearGradient
       id="linearGradient7422">
      <stop
         style="stop-color:#7c9fcf;stop-opacity:1"
         offset="0"
         id="stop7424" />
      <stop
         id="stop5348"
         offset="0.5"
         style="stop-color:#7c9ece;stop-opacity:1" />
      <stop
         id="stop7426"
         offset="1"
         style="stop-color:#7b9dcf;stop-opacity:1" />
    </linearGradient>
    <linearGradient
       y2="388.95178"
       x2="399.77466"
       y1="1324.7792"
       x1="405.94968"
       gradientTransform="matrix(0.08097132,0,0,0.07807154,182.74486,-6.9021226)"
       gradientUnits="userSpaceOnUse"
       id="linearGradient2330"
       xlink:href="#linearGradient7422"
       inkscape:collect="always" />
    <linearGradient
       y2="-214.35963"
       x2="33.829792"
       y1="429.62332"
       x1="33.829792"
       gradientTransform="matrix(0.40973888,0,0,0.24845378,46.138619,21.258463)"
       gradientUnits="userSpaceOnUse"
       id="linearGradient2360"
       xlink:href="#linearGradient3369"
       inkscape:collect="always" />
    <linearGradient
       inkscape:collect="always"
       xlink:href="#linearGradient7422"
       id="linearGradient840"
       gradientUnits="userSpaceOnUse"
       gradientTransform="matrix(0.40973888,0,0,0.24845378,46.138619,21.258463)"
       x1="33.829792"
       y1="429.62332"
       x2="33.829792"
       y2="-214.35963" />
  </defs>
  <sodipodi:namedview
     pagecolor="#ffffff"
     bordercolor="#666666"
     borderopacity="1"
     objecttolerance="10"
     gridtolerance="10"
     guidetolerance="10"
     inkscape:pageopacity="0"
     inkscape:pageshadow="2"
     inkscape:window-width="1366"
     inkscape:window-height="706"
     id="namedview4"
     showgrid="true"
     inkscape:snap-page="true"
     inkscape:snap-global="true"
     inkscape:zoom="19.59543"
     inkscape:cx="24.080377"
     inkscape:cy="117.107"
     inkscape:window-x="0"
     inkscape:window-y="0"
     inkscape:window-maximized="1"
     inkscape:current-layer="svg2"
     showguides="false">
    <inkscape:grid
       type="xygrid"
       id="grid837"
       spacingx="4"
       spacingy="4"
       empspacing="1" />
  </sodipodi:namedview>
  <path
     sodipodi:type="inkscape:offset"
     inkscape:radius="4.0107245"
     inkscape:original="M 12 8 L 12 108 L 64 122.61328 L 116 108 L 116 8 L 12 8 z "
     style="fill:url(#linearGradient840);fill-opacity:1;fill-rule:evenodd;stroke:none;stroke-width:4.47213125;stroke-linecap:round;stroke-linejoin:round;stroke-miterlimit:4;stroke-dasharray:none;stroke-opacity:1"
     id="path838"
     d="M 12,3.9902344 A 4.0111256,4.0111256 0 0 0 7.9902344,8 v 100 a 4.0111256,4.0111256 0 0 0 2.9238276,3.86133 l 52,14.61328 a 4.0111256,4.0111256 0 0 0 2.171876,0 L 117.08594,111.86133 A 4.0111256,4.0111256 0 0 0 120.00977,108 V 8 A 4.0111256,4.0111256 0 0 0 116,3.9902344 Z" />
  <path
     sodipodi:nodetypes="cccccc"
     style="fill:url(#linearGradient2360);fill-opacity:1;fill-rule:evenodd;stroke:none;stroke-width:4.47213125;stroke-linecap:round;stroke-linejoin:round;stroke-miterlimit:4;stroke-dasharray:none;stroke-opacity:1"
     d="M 12,8 V 108 L 64,122.61239 116,108 V 8 Z"
     id="path37359"
     inkscape:connector-curvature="0" />
  <g
     transform="matrix(0,0.57912965,0.57912965,0,27.114229,-2.9133545)"
     inkscape:label="Livello 1"
     id="g1544" />
  <g
     transform="matrix(0,-0.57912965,0.57912965,0,27.114229,130.91165)"
     inkscape:label="Livello 1"
     id="g1599" />
</svg>
